icons/issue-tracked-by-24.svg

<svg xmlns="http://www.w3.org/2000/svg" width="24" height="24" viewBox="0 0 24 24"><path d="M2.5 12a9.5 9.5 0 1119 0 .75.75 0 001.5 0c0-6.075-4.925-11-11-11S1 5.925 1 12s4.925 11 11 11a.75.75 0 000-1.5A9.5 9.5 0 012.5 12z"/><path d="M12 14a2 2 0 100-4 2 2 0 000 4zm2.5 2.75a.75.75 0 01.75-.75h7a.75.75 0 010 1.5h-7a.75.75 0 01-.75-.75zm3.75 2.75a.75.75 0 000 1.5h4a.75.75 0 000-1.5h-4z"/></svg>

<svg xmlns="http://www.w3.org/2000/svg" width="24" height="24" viewBox="0 0 24 24">
  <defs/>
  <path d="M2.5,12 A9.5 9.5 0 1 1 21.5,12 A0.75 0.75 0 0 0 23,12 C23,5.925 18.075,1 12,1 C5.925,1 1,5.925 1,12 C1,18.075 5.925,23 12,23 A0.75 0.75 0 0 0 12,21.5 A9.5 9.5 0 0 1 2.5,12 Z"/>
  <path d="M12,14 A2 2 0 1 0 12,10 A2 2 0 0 0 12,14 Z M14.5,16.75 A0.75 0.75 0 0 1 15.25,16 L22.25,16 A0.75 0.75 0 0 1 22.25,17.5 L15.25,17.5 A0.75 0.75 0 0 1 14.5,16.75 Z M18.25,19.5 A0.75 0.75 0 0 0 18.25,21 L22.25,21 A0.75 0.75 0 0 0 22.25,19.5 L18.25,19.5 Z"/>
</svg>
